X: 56
T:The Fruits Of Newbury - A New Bourree
% Nottingham Music Database
S:John Goodacre 1985, via PR
M:4/4
L:1/4
K:D
"G"d3/2c/2 BG|"A7"A2 A2|"G"d3/2c/2 B" ""f#"F|"Em"G/2A/2G/2F/2 G2|"G"d3/2c/2 BG\
|"A7"A2 Bc|"Bm"d3/2c/2 BF|"Em"G2 G2::
"D"AF "G"BG|"D"A/2B/2A/2G/2 F/2E/2D|"D"AF "G"BG/2F/2|"A7"E2 E2|"D"AF "G"BG|\
"D"A/2B/2A/2G/2 F/2E/2D|"D"FA "A7"G/2E/2C|"D"D2 D2:|<end>
<start>
